X:1
T:Title
%%score ( 1 2 ) { ( 3 5 ) | 4 }
L:1/8
Q:1/4=100
M:4/4
K:G
V:1 treble nm="Grand Piano, Soprano"
V:2 treble 
V:3 bass nm="Choir Pad, Roanoke, Charles Gabriel"
V:5 bass 
V:4 bass 
V:1
 D [DG]2 [DG]- [DG] [DG]3 | [DA][GB][Gc][Gd] [Ge][Gd] [GB]2 | G [FA]2 [GA]- [GA] [FA]3 | %3
w: By~Charles~Hutchinson~Gabriel,~1912 * * * *|||
 [=F^G][^FA][=GB][Ac] [GB] [FA]3 | D [DG]2 [DG]- [DG] [DG]3 | [DA][GB][Gc][Gd] [Ge][Gd] [GB]2 | %6
w: |||
 [DG] [EA]2 [EB]- [EB][Ec][Ec][EB] | [EA] [DG]2 [DF]- [DF] [DG]3 | [GB] [Gd]3 [Ge] [Gd]3 | %9
w: |||
 [GB][Bd][Ac][Ac] [^GB][Ac] [FA]2 | [GB] [Ac]3 [Bd] [Ac]3 | [ce][ce][Bd][Bd] [_B^c] [=Bd]3 | %12
w: |||
 [GB] [Gd]3 [Ge] [Gd]3 | z4 z c z2 | [Ge] [Gd]2 [G^c]- [Gc] [Gd]3 | G[GB][GB][FA] [DA] [DG]3- | %16
w: ||||
 [DG]4 z4 |] %17
w: |
V:2
 x8 | x8 | x8 | x8 | x8 | x8 | x8 | x8 | x8 | x8 | x8 | x8 | x8 | [GB][Gd][DG][DA] [DB]G-[Gd][Ge] | %14
 x8 | x8 | x8 |] %17
V:3
 B, B,2 B,- B, B,3 | CDA,B, CB, D2 | B, D2 ^C- C D3 | z4 z D3[K:bass] | C B,2 B,- B, B,3 | %5
 CDA,B, C[K:bass]B, D2 | B, A,2 ^G,- G,A,A,G, | A, B,2[K:treble] C- C B,3 | D B,3 C B,3 | %9
 D D3- D4- | D8 | EEDD ^C D3 | D[K:bass] B,3 D B,3 | DB,B,[K:treble]C DCB,C | %14
 C[K:bass] B,2 _B,- B, =B,3 | B,[K:treble]DDC C B,3- | B,4 z4 |] %17
V:4
 G, G,2 G,- G, G,3 | G,G,G,G, G,G, G,2 | G, D,2 E,- E, D,3 | D,D,D,D, D, D,3 | %4
 [A,,D,] [G,,G,]2 [G,,G,]- [G,,G,] [G,,G,]3 | G,,G,G,G, G,G, G,2 | G, C,2 C,- C,A,,A,,B,, | %7
 C, D,2 D,- D, [G,,G,]3 | G, G,3 G, G,3 | G,D,D,D, D,D, D,2 | D, D,3 D, D,3 | D,G,G,G, G, G,3 | %12
 G, G,3 G, G,3 | G,G,G,F, =F,E,D,C, | C, G,2 G,- G, G,3 | E,D,D,D, D, G,,3- | G,,4 z4 |] %17
V:5
 x8 | x8 | x8 | DDDD .D2[K:bass] C,B,, | x8 | x5[K:bass] x3 | x8 | x3[K:treble] x5 | x8 | x8 | x8 | %11
 x8 | x[K:bass] x7 | x3[K:treble] x5 | x[K:bass] x7 | x[K:treble] x7 | x8 |] %17

